www/assets/icons/warning_amber.svg

<svg xmlns="http://www.w3.org/2000/svg" width="24" height="24" viewBox="0 0 24 24" fill='currentColor'><path d="m12 6.49 7.53 13.01H4.47zm0-3.99-11 19h22z"/><path d="M13 16.5h-2v2h2zm0-6h-2v5h2z"/></svg>

<svg width="24" height="24" viewBox="0 0 24 24" xmlns="http://www.w3.org/2000/svg" fill='currentColor'><path d="M12 6.49L19.53 19.5H4.47L12 6.49ZM12 2.5L1 21.5H23L12 2.5Z"/><path d="M13 16.5H11V18.5H13V16.5Z"/><path d="M13 10.5H11V15.5H13V10.5Z"/></svg>
